X:1
T: Miss Elphenstone
C:
R:Reel
Q: 232
K:D
M:4/4
L:1/8
|:f|d2 dA F2 dA|e2 ed ce ea|fd ed d2 AG|Fd ea fd df|
d2 dA F2 dA|e2 ed ce ea|fd ed d2 AG|Fd ea fd df|
af df ba gf|ga gf ef gb|af df a2 gf|gb ag fd df|
af df ba gf|ga gf ef ga|gf ed c2 BA|Bd ea fd d:|
